X:1
T:Didn't We
T:Didn't We
C:Jimmy Webb
Z:All Rights Reserved
L:1/8
M:4/4
K:C
V:1 treble nm="Voice"
%%MIDI program 52
V:1
 z2"G9" c2 A2 F2 |"C" E2 E2 E3 E |"Cmaj7" EF G6 |"Dm7" FG A2- A4 |"G9" z2 c2"A7" A3 G | %5
w: This time we|al- most made the|piec- es fit|did- 'nt we? *|This time we|
"Dm" F3 F"Ddim" F3 F |"Dm7" FG A6 |"Cmaj7" GA B2- B4 | z8 |"A" z2 c2 c3 c |"Adim" c3 c c B3 | %11
w: al- most made some|sense of it,|Did- n't we? *||This time I|held the ans- wer|
"Am7" cBcd e4- |"Am6" e4 c2 B2 |"Fmaj7" c2 c2 c4 |"Dm7" f2 e2"Fmaj7" c3 c |"Bb" d8 | %16
w: right here in my hand.|* Then I|touched it and|it had turned to|sand.|
"F" z2 c2 A2 F2 |"C" E2 E2 E3 E |"Cmaj7" EF G6 |"Dm7" FG A2- A4 |"G9" z2 c2"A7" A3 G | %21
w: This time we|al- most sang our|song in tune|did- n't we? *|This time we|
"Dm" F2 F2"Ddim" F F3 |"Dm7" F3 G A4 |"Cmaj7" G4 GA B2- |"E" B8 |"A" z2 c2 c3 c | %26
w: al- most made it|to the moon,|oh did- n't we?||This time we|
"Adim" c2 c2 c3 B |"Am7" (c2 d2) e4- |"Am6" e8 |"Fmaj7" z2 c2 c3 B |"C" c2 c2 c2 d2 | %31
w: al- most made our|poem * rhyme.||This time we|al- most made that|
"Dm7" g4"Em" (e2 G2) |"Fmaj7" (Ac-) c6 |"Dm" de f2"Dm" f2 f2 |"G9sus4" f2 d4"G7" e2 |"C6" c8 |] %36
w: long, long *|climb. * *|did- n't we al- most|make it this|time?|

